assets/collections/virtualboy/logo_color.svg

<svg enable-background="new 0 0 3839 1027.7" version="1.1" viewBox="0 0 3839 1027.7" xml:space="preserve" xmlns="http://www.w3.org/2000/svg">
<path class="st259" d="m1989.3008 0-200.3008 1000.9004h95.0996l23-115.00001h164.0996l23.2012 115.00001h95.0996l-200.1992-1000.9004zm1252.5996 17.800781c-92.1999 0-167.0996 74.799702-167.0996 167.099609v136.69922 409.40039 112.09961c0 92.19991 74.7997 167.09959 167.0996 167.09959 92.1999 0 167.0996-74.79968 167.0996-167.09959v-112.19922-149.70117-134.59961-125.19922-136.70117c0-92.199909-74.7997-166.898439-167.0996-166.898439zm-3241.9004 9.09961 200.30078 1000.798809 200.19922-1000.798809h-95.09961l-105.09961 525.099609-104.999999-525.099609h-95.300781zm462.09961 0v974.000009h111.70117v-974.000009h-111.70117zm214.20117 0v111.699219 862.30079h111.69922v-542.80079-0.09961-319.59961h110.69922v319.59961h-110.69922l2.40039 8.80078 150.69922 534.09962h116.09959l-125.89842-446.4004c46.89995-23.49998 79.09962-71.90045 79.09962-127.90039v-256.69922c0-78.99992-64.00009-142.999999-143.00001-142.999999h-79.30078-111.79883zm369.19922 0v111.499999h111.0996v862.50001h111.7012v-862.50001h111.1992v-111.499999h-111.1992-111.7012-111.0996zm381 0v816.099609c0 92.19991 74.7997 167.0996 167.0996 167.0996 92.1999 0 167.0996-74.79969 167.0996-167.0996v-816.099609h-111.7988v862.298829h-110.7012v-862.298829h-111.6992zm816 0v862.298829 55.90039 55.80079h282.5996v-111.70118h-170.9004v-862.298829h-111.6992zm406 0v974.000009h33.1992 157.8008c78.9999 0 143-64.00009 143-143.00001v-245.59961c0-32.29997-15.5996-71.70042-39.5996-98.40039 24-26.59997 39.5996-66.10042 39.5996-98.40039v-245.59961c0-78.99992-64.0001-142.999999-143-142.999999h-79.3008-78.5-33.1992zm791.9004 0 142.9004 596.499999v377.50001h111.6992v-369.59962l144-604.400389h-95.3008l-103.5996 432.900389-103.6992-432.900389h-96zm-680.3008 111.499999h110.7012v319.59961h-110.7012v-319.59961zm426.5 0.19922h110.7012v182.80078 259.79883 149.70117 158.29883h-110.7012v-308-134.59961-308zm-1197.2988 337.09961 59.6992 298.5h-119.4004l59.7012-298.5zm770.7988 94h110.7012v319.5h-110.7012v-319.5z" fill="#f00"/>
</svg>

<?xml version="1.0" encoding="utf-8"?>
<!-- Generator: Adobe Illustrator 26.0.1, SVG Export Plug-In . SVG Version: 6.00 Build 0)  -->
<svg version="1.1" xmlns="http://www.w3.org/2000/svg" xmlns:xlink="http://www.w3.org/1999/xlink" x="0px" y="0px"
	 viewBox="0 0 3839 1027.7" style="enable-background:new 0 0 3839 1027.7;" xml:space="preserve">
<style type="text/css">
	.st0{fill:#FFFFFF;}
	
		.st1{clip-path:url(#SVGID_00000023244036884468475980000016542116217914531000_);fill:url(#SVGID_00000161626426977143493940000002840036177408432520_);}
	.st2{clip-path:url(#SVGID_00000149364562389124691160000005049198389296493982_);}
	.st3{fill:#010001;}
	.st4{fill:#020102;}
	.st5{fill:#030103;}
	.st6{fill:#040104;}
	.st7{fill:#040205;}
	.st8{fill:#050206;}
	.st9{fill:#060207;}
	.st10{fill:#070308;}
	.st11{fill:#080309;}
	.st12{fill:#09030A;}
	.st13{fill:#0A030B;}
	.st14{fill:#0B040C;}
	.st15{fill:#0B040D;}
	.st16{fill:#0C040E;}
	.st17{fill:#0D050F;}
	.st18{fill:#0E0510;}
	.st19{fill:#0F0511;}
	.st20{fill:#100612;}
	.st21{fill:#110613;}
	.st22{fill:#120614;}
	.st23{fill:#130715;}
	.st24{fill:#130716;}
	.st25{fill:#140717;}
	.st26{fill:#150818;}
	.st27{fill:#160819;}
	.st28{fill:#17081A;}
	.st29{fill:#18081B;}
	.st30{fill:#19091C;}
	.st31{fill:#1A091D;}
	.st32{fill:#1A091E;}
	.st33{fill:#1B0A1F;}
	.st34{fill:#1C0A20;}
	.st35{fill:#1D0A21;}
	.st36{fill:#1E0B22;}
	.st37{fill:#1F0B23;}
	.st38{fill:#200B24;}
	.st39{fill:#210C25;}
	.st40{fill:#220C26;}
	.st41{fill:#220C27;}
	.st42{fill:#230D28;}
	.st43{fill:#240D29;}
	.st44{fill:#250D2A;}
	.st45{fill:#260D2B;}
	.st46{fill:#270E2C;}
	.st47{fill:#280E2D;}
	.st48{fill:#290E2E;}
	.st49{fill:#290F2F;}
	.st50{fill:#2A0F30;}
	.st51{fill:#2B0F31;}
	.st52{fill:#2C1032;}
	.st53{fill:#2D1033;}
	.st54{fill:#2E1034;}
	.st55{fill:#2F1135;}
	.st56{fill:#301136;}
	.st57{fill:#311137;}
	.st58{fill:#311238;}
	.st59{fill:#321239;}
	.st60{fill:#33123A;}
	.st61{fill:#34133B;}
	.st62{fill:#35133C;}
	.st63{fill:#36133D;}
	.st64{fill:#37133E;}
	.st65{fill:#38143F;}
	.st66{fill:#381440;}
	.st67{fill:#391441;}
	.st68{fill:#3A1542;}
	.st69{fill:#3B1543;}
	.st70{fill:#3C1544;}
	.st71{fill:#3D1645;}
	.st72{fill:#3E1646;}
	.st73{fill:#3F1647;}
	.st74{fill:#401748;}
	.st75{fill:#401749;}
	.st76{fill:#41174A;}
	.st77{fill:#42184B;}
	.st78{fill:#43184C;}
	.st79{fill:#44184D;}
	.st80{fill:#45184E;}
	.st81{fill:#46194F;}
	.st82{fill:#471950;}
	.st83{fill:#471951;}
	.st84{fill:#481A52;}
	.st85{fill:#491A53;}
	.st86{fill:#4A1A54;}
	.st87{fill:#4B1B55;}
	.st88{fill:#4C1B56;}
	.st89{fill:#4D1B57;}
	.st90{fill:#4E1C58;}
	.st91{fill:#4F1C59;}
	.st92{fill:#4F1C5A;}
	.st93{fill:#501D5B;}
	.st94{fill:#511D5C;}
	.st95{fill:#521D5D;}
	.st96{fill:#531D5E;}
	.st97{fill:#541E5F;}
	.st98{fill:#551E60;}
	.st99{fill:#561E61;}
	.st100{fill:#561F62;}
	.st101{fill:#571F63;}
	.st102{fill:#581F64;}
	.st103{fill:#592065;}
	.st104{fill:#5A2066;}
	.st105{fill:#5B2067;}
	.st106{fill:#5C2168;}
	.st107{fill:#5D2169;}
	.st108{fill:#5E216A;}
	.st109{fill:#5E226B;}
	.st110{fill:#5F226C;}
	.st111{fill:#60226D;}
	.st112{fill:#61236E;}
	.st113{fill:#62236F;}
	.st114{fill:#632370;}
	.st115{fill:#642371;}
	.st116{fill:#652472;}
	.st117{fill:#652473;}
	.st118{fill:#662474;}
	.st119{fill:#672575;}
	.st120{fill:#682576;}
	.st121{fill:#692577;}
	.st122{fill:#6A2678;}
	.st123{fill:#6B2679;}
	.st124{fill:#6C267A;}
	.st125{fill:#6D277B;}
	.st126{fill:#6D277C;}
	.st127{fill:#6E277D;}
	.st128{fill:#6F287E;}
	.st129{fill:#70287F;}
	.st130{fill:#712880;}
	.st131{fill:#722881;}
	.st132{fill:#732982;}
	.st133{fill:#742983;}
	.st134{fill:#742984;}
	.st135{fill:#752A85;}
	.st136{fill:#762A86;}
	.st137{fill:#772A87;}
	.st138{fill:#782B88;}
	.st139{fill:#792B89;}
	.st140{fill:#7A2B8A;}
	.st141{fill:#7B2C8B;}
	.st142{fill:#7C2C8C;}
	.st143{fill:#7C2C8D;}
	.st144{fill:#7D2D8E;}
	.st145{fill:#7E2D8F;}
	.st146{fill:#7F2D90;}
	.st147{fill:#802D91;}
	.st148{fill:#812E92;}
	.st149{fill:#822E93;}
	.st150{fill:#832E94;}
	.st151{fill:#832F95;}
	.st152{fill:#842F96;}
	.st153{fill:#852F97;}
	.st154{fill:#863098;}
	.st155{fill:#873099;}
	.st156{fill:#88309A;}
	.st157{fill:#89319B;}
	.st158{fill:#8A319C;}
	.st159{fill:#8B319D;}
	.st160{fill:#8B329E;}
	.st161{fill:#8C329F;}
	.st162{fill:#8D32A0;}
	.st163{fill:#8E33A1;}
	.st164{fill:#8F33A2;}
	.st165{fill:#9033A3;}
	.st166{fill:#9133A4;}
	.st167{fill:#9234A5;}
	.st168{fill:#9234A6;}
	.st169{fill:#9334A7;}
	.st170{fill:#9435A8;}
	.st171{fill:#9535A9;}
	.st172{fill:#9635AA;}
	.st173{fill:#9736AB;}
	.st174{fill:#9836AC;}
	.st175{fill:#9936AD;}
	.st176{fill:#9A37AE;}
	.st177{fill:#9A37AF;}
	.st178{fill:#9B37B0;}
	.st179{fill:#9C38B1;}
	.st180{fill:#9D38B2;}
	.st181{fill:#9E38B3;}
	.st182{fill:#9F38B4;}
	.st183{fill:#A039B5;}
	.st184{fill:#A139B6;}
	.st185{fill:#A139B7;}
	.st186{fill:#A23AB8;}
	.st187{fill:#A33AB9;}
	.st188{fill:#A43ABA;}
	.st189{fill:#A53BBB;}
	.st190{fill:#A63BBC;}
	.st191{fill:#A73BBD;}
	.st192{fill:#A83CBE;}
	.st193{fill:#A93CBF;}
	.st194{fill:#A93CC0;}
	.st195{fill:#AA3DC1;}
	.st196{fill:#AB3DC2;}
	.st197{fill:#AC3DC3;}
	.st198{fill:#AD3DC4;}
	.st199{fill:#AE3EC5;}
	.st200{fill:#AF3EC6;}
	.st201{fill:#B03EC7;}
	.st202{fill:#B03FC8;}
	.st203{fill:#B13FC9;}
	.st204{fill:#B23FCA;}
	.st205{fill:#B340CB;}
	.st206{fill:#B440CC;}
	.st207{fill:#B540CD;}
	.st208{fill:#B641CE;}
	.st209{fill:#B741CF;}
	.st210{fill:#B841D0;}
	.st211{fill:#B842D1;}
	.st212{fill:#B942D2;}
	.st213{fill:#BA42D3;}
	.st214{fill:#BB43D4;}
	.st215{fill:#BC43D5;}
	.st216{fill:#BD43D6;}
	.st217{fill:#BE43D7;}
	.st218{fill:#BF44D8;}
	.st219{fill:#BF44D9;}
	.st220{fill:#C044DA;}
	.st221{fill:#C145DB;}
	.st222{fill:#C245DC;}
	.st223{fill:#C345DD;}
	.st224{fill:#C446DE;}
	.st225{fill:#C546DF;}
	.st226{fill:#C646E0;}
	.st227{fill:#C747E1;}
	.st228{fill:#C747E2;}
	.st229{fill:#C847E3;}
	.st230{fill:#C948E4;}
	.st231{fill:#CA48E5;}
	.st232{fill:#CB48E6;}
	.st233{fill:#CC48E7;}
	.st234{fill:#CD49E8;}
	.st235{fill:#CE49E9;}
	.st236{fill:#CE49EA;}
	.st237{fill:#CF4AEB;}
	.st238{fill:#D04AEC;}
	.st239{fill:#D14AED;}
	.st240{fill:#D24BEE;}
	.st241{fill:#D34BEF;}
	.st242{fill:#D44BF0;}
	.st243{fill:#D54CF1;}
	.st244{fill:#D64CF2;}
	.st245{fill:#D64CF3;}
	.st246{fill:#D74DF4;}
	.st247{fill:#D84DF5;}
	.st248{fill:#D94DF6;}
	.st249{fill:#DA4DF7;}
	.st250{fill:#DB4EF8;}
	.st251{fill:#DC4EF9;}
	.st252{fill:#DD4EFA;}
	.st253{fill:#DD4FFB;}
	.st254{fill:#DE4FFC;}
	.st255{fill:#DF4FFD;}
	.st256{fill:#E050FE;}
	.st257{fill:#E150FF;}
	.st258{fill:#780117;}
	.st259{fill:#FF0000;}
	
		.st260{clip-path:url(#SVGID_00000150813991722536238290000011004460037744111772_);fill:url(#SVGID_00000163761971610656428590000006143035410324671162_);}
	.st261{clip-path:url(#SVGID_00000156585279636096679860000010346400267149123487_);}
	.st262{fill:#D1D1D1;}
	
		.st263{clip-path:url(#SVGID_00000046333210691822864860000014336683943689713799_);fill:url(#SVGID_00000183248631780790201380000006031937305668127380_);}
	.st264{clip-path:url(#SVGID_00000075155640174700906680000004143755910130846091_);}
</style>
<g id="Layer_1">
</g>
<g id="Layer_2">
	<g>
		<g>
			<polygon class="st259" points="1379.5,26.9 1268.3,26.9 1156.6,26.9 1045.5,26.9 1045.5,138.4 1156.6,138.4 1156.6,1000.9 
				1268.3,1000.9 1268.3,138.4 1379.5,138.4 			"/>
			<path class="st259" d="M1648.9,26.9v862.3h-110.7V26.9h-111.7V843c0,92.2,74.8,167.1,167.1,167.1l0,0
				c92.2,0,167.1-74.8,167.1-167.1V26.9H1648.9z"/>
			<path class="st259" d="M2094.4,1000.9h95.1L1989.3,0L1789,1000.9h95.1l23-115h164.1L2094.4,1000.9z M1929.6,774.2l59.7-298.5
				l59.7,298.5H1929.6z"/>
			<polygon class="st259" points="0,26.9 200.3,1027.7 400.5,26.9 305.4,26.9 200.3,552 95.3,26.9 			"/>
			<path class="st259" d="M2982.5,169.9c0-79-64-143-143-143h-79.3h-78.5h-33.2v974h33.2h157.8c79,0,143-64,143-143V612.3
				c0-32.3-15.6-71.7-39.6-98.4c24-26.6,39.6-66.1,39.6-98.4V169.9H2982.5z M2870.8,138.4V458h-110.7V138.4H2870.8z M2760.1,889.2
				V569.7h110.7v319.5H2760.1z"/>
			<polygon class="st259" points="3839,26.9 3743.7,26.9 3640.1,459.8 3536.4,26.9 3440.4,26.9 3583.3,623.4 3583.3,1000.9 
				3695,1000.9 3695,631.3 			"/>
			<rect x="462.1" y="26.9" class="st259" width="111.7" height="974"/>
			<path class="st259" d="M1057.2,1000.9L931.3,554.5c46.9-23.5,79.1-71.9,79.1-127.9V169.9c0-79-64-143-143-143h-79.3H676.3v111.7
				v862.3H788V458.1l0,0V138.4h110.7V458H788l0,0l0,0l0,0l2.4,8.8l150.7,534.1H1057.2z"/>
			<polygon class="st259" points="2354.2,889.2 2354.2,26.9 2242.5,26.9 2242.5,889.2 2242.5,945.1 2242.5,1000.9 2525.1,1000.9 
				2525.1,889.2 			"/>
			<path class="st259" d="M3241.9,17.8L3241.9,17.8c-92.2,0-167.1,74.8-167.1,167.1v136.7l0,0V731l0,0v112.1
				c0,92.2,74.8,167.1,167.1,167.1l0,0c92.2,0,167.1-74.8,167.1-167.1V730.9V581.2V446.6V321.4V184.7
				C3409,92.5,3334.2,17.8,3241.9,17.8z M3297.3,321.4v259.8v149.7v158.3h-110.7v-308l0,0V446.6l0,0v-308h110.7V321.4L3297.3,321.4z
				"/>
		</g>
	</g>
</g>
</svg>
